X:1
T:Das Rosenband
T:Franz Schubert
T: Friedrich Gottlieb Klopstock
T:Das Rosenband (D.280) 
T:Creative Commons Copyright Waiver (CC0 1.0 Universal)
T:Creative Commons Copyright Waiver (CC0 1.0 Universal)
C:Franz Schubert
Z:Friedrich Gottlieb Klopstock
Z:Creative Commons Copyright Waiver (CC0 1.0 Universal)
%%score 1 { ( 2 4 5 ) | ( 3 6 ) }
L:1/8
M:2/2
K:Ab
V:1 treble nm="Singstimme\nVoice"
V:2 treble nm="Pianoforte"
V:4 treble 
V:5 treble 
V:3 bass 
V:6 bass 
V:1
 e2 | e2 c2 B2 d2 | c2 B2 A2 z A | f2 d2 c2 e2 | d2 c2{c} B2 B B | e3 =B c2 c2 | d4 c4 | B4 z2 F2 | %8
w: Im|Früh- lings- gar- ten|fand ich sie; da|band ich sie mit|Ro- sen- ban- dern: sie|fühlt' es nicht und|schlum- mer-|te. Ich|
 B4 c4 | d3 d e2 =e2 | f2 e2 d2 c2 | B2 =B2 c3 A | c4 B2 c2 | e4 =A4 | B6 c2 | d4 G4 | A4 z2 e2 | %17
w: sah sie|an; mein Le- ben|hing mit die- sem|Blick an ih- rem|Le- ben; ich|fühlt' es|wohl und|wußt es|nicht. Doch|
 e2 c2 B2 d2 | c2 B2 A2 z A | f2 d2 c2 e2 | d2 c2{c} B2 B B | e3 =B c2 c2 | d4 c4 | B4 z2 F2 | %24
w: lis- pelt' ich ihr|lei- se zu und|rausc- te mit den|Ro- sen- * dern: da|wach- te sie vom|Schlum- mer|auf. Sie|
 B4 c4 | d3 d e2 =e2 | f2 e2 d2 c2 | B2 =B2 c3 A | c4 B2 c2 | e4 =A4 | B6 c2 | d4 G4 | A4 z4 | z8 | %34
w: sah mich|an; ihr Le- ben|hing mit die- sem|Blick an mei- nem|Le- ben, und|um uns|ward E-|ly- si-|um.||
 z8 | z8 |] %36
w: ||
V:2
 z2 |!p! ([EAc]4 [FBd]4) | ([EAc]2 [DGB]2 [CFA]4) | ([Adf]4 [_Gce]4) | ([FBd]2 [E=Ac]2) B4 | %5
 (B2 =B2) c4 | ([Gd]4 [Ac]4) | B6 x2 | [DFB]4 c4 | d4 e2 =e2 | (f2 _e2 [Gd]2 [Ac]2) | %11
 (B2 =B2) [Ac]4- | ([Ac]2 [^F=A]2 [GB]2)!pp! (c2 | e4) [_G=A]4 | (B6 [=Ac]2) | [Bd]4 [GB]4 | %16
 (CADF CEDG) | (CEAc B,DGB) | (AC[=EG]B, FDA,D) | (FAdf) (_E_Gce) | (dF[=Ac]E) (BD=DB) | %21
 (EBE=B EcEc) | z (E[Gd]E) z (E[Ac]E) | z2 B4 E2 | (DFBF) c4 | (FAdA) e2 =e2 | (f2 _e2 d2 c2) | %27
 B2 =B2 c4- | (c2 =A2) ([GB]EcE) | (eAce) (_gec=A) | (fB=AB fBeA) |!p! (BdBF) (DBGD) | %32
 (CAEC DBE)c | (FdAF DBED) | (CAED CAED) | !fermata![CEA]8 |] %36
V:3
 z2 | A,4 D,4 | (E,2 =E,2 F,4) | (D,4 =A,4) | (B,2 F,2) _G,4 | =G,4 (A,2 =A,2) | (B,4 _A,4) | %7
 (E,4 D,2 C,2) | B,,4 A,,4 | D,4 C,4 | D,2 C,2 B,,2 A,,2 | D,4!>(! (=D,4!>)! | E,6) (A,2 | C4 E4) | %14
!>(! (E4 D2!>)! C2) | (B,4 E,4) | A,2 z2 z4 | (A,4 E,2 =E,2) | (F,2 C,2 D,4) | (D4 =A,4) | %20
 (B,2 F,2 _G,4) | (=G,4 A,2 =A,2) | (B,4 _A,4) | E,4 (D,2 C,2) | B,,4 A,,4 | D,4 C,4 | %26
 (D,2 C,2 B,,2 A,,2) | D,4 =D,4 | E,6 [A,C]2 | ([CE]4[K:treble] [E_G]4) | %30
 (!>![EF]4 ([DF]2) [CE]2) | ([B,D]4[K:bass] E,4) | (A,4 G,2 _G,2) | (F,4 =G,4) | [A,,E,A,]8 | %35
 !fermata![A,,C,E,A,]8 |] %36
V:4
 x2 | x8 | x8 | x8 | x4 (D2 =D2) | E4 E4 | E8 | G2 _G2 F2 [F=A]2 | x4 ([E_G]2 [FA][EG]) | %9
 [DF]2 [FA]2 (A2 [Ac])[GB] | F2 _E2 E2 E2 | F4 (F4 | E6) E2- | (E4 _G4) | F6 E2 | F4 D4 | x8 | x8 | %18
 x8 | x8 | x8 | x8 | x8 | z (EG_G FBE=A) | x4 (E_GAG) | x4 EA-[Ac][GB] | AFAE GEAE | %27
 (BF=BF) (AFAF) | (AE^FE) x4 | x8 | x8 | x8 | x8 | x8 | x8 | x8 |] %36
V:5
 x2 | x8 | x8 | x8 | x8 | x8 | x8 | E4 F2 E2 | x8 | x8 | A4 x4 | x8 | x8 | x8 | x8 | x8 | x8 | x8 | %18
 x8 | x8 | x8 | x8 | x8 | x8 | x8 | x8 | x8 | x8 | x8 | x8 | x8 | x8 | x8 | x8 | x8 | x8 |] %36
V:6
 x2 | x8 | x8 | x8 | x8 | x8 | x8 | x8 | x8 | x8 | x8 | x8 | x8 | x8 | x8 | x8 | x8 | x8 | x8 | %19
 x8 | x8 | x8 | x8 | x8 | x8 | x8 | x8 | x8 | x8 | x4[K:treble] x4 | x8 | x4[K:bass] x4 | A,,8- | %33
 A,,8 | x8 | x8 |] %36

